korla/categories/scalable/locale.svg

<svg style="clip-rule:evenodd;fill-rule:evenodd;stroke-linejoin:round;stroke-miterlimit:1.41421" version="1.1" viewBox="0 0 48 48" xmlns="http://www.w3.org/2000/svg">
 <path d="m24 1c12.703 0 23 10.297 23 23s-10.297 23-23 23-23-10.297-23-23 10.297-23 23-23z" style="fill-rule:nonzero;fill:url(#_Linear1)"/>
 <path d="m15 14l12-4e-3v14h-12" style="fill-rule:nonzero;fill:#ff4935"/>
 <path d="m27 14h-1.074l-10.926 8.754v5.25h12" style="fill-opacity:.321569;fill-rule:nonzero"/>
 <path d="m14.5 11c0.828 0 1.5 0.793 1.5 1.773v22.453c0 0.98-0.672 1.773-1.5 1.773s-1.5-0.793-1.5-1.773v-22.453c0-0.98 0.672-1.773 1.5-1.773" style="fill-rule:nonzero;fill:#f0f0f0"/>
 <path d="m25 13l0.07 13.996 11.93 4e-3 -6.125-8 6.125-6" style="fill-rule:nonzero;fill:#ff4935"/>
 <defs>
  <linearGradient id="_Linear1" x2="1" gradientTransform="matrix(2.81669e-15 -46 46 2.81669e-15 .999999 47)" gradientUnits="userSpaceOnUse">
   <stop style="stop-color:#005aa0" offset="0"/>
   <stop style="stop-color:#00a8fc" offset="1"/>
  </linearGradient>
 </defs>
</svg>

<?xml version="1.0" encoding="UTF-8" standalone="no"?>

<svg width="100%" height="100%" viewBox="0 0 48 48" version="1.1" xmlns="http://www.w3.org/2000/svg" xmlns:xlink="http://www.w3.org/1999/xlink" xml:space="preserve" xmlns:serif="http://www.serif.com/" style="fill-rule:evenodd;clip-rule:evenodd;stroke-linejoin:round;stroke-miterlimit:1.41421;">
    <path d="M24,1C36.703,1 47,11.297 47,24C47,36.703 36.703,47 24,47C11.297,47 1,36.703 1,24C1,11.297 11.297,1 24,1Z" style="fill:url(#_Linear1);fill-rule:nonzero;"/>
    <g>
        <clipPath id="_clip2">
            <path d="M47,24C47,36.708 36.696,47 24,47C11.304,47 1,36.708 1,24C1,11.292 11.304,1 24,1C36.696,1 47,11.292 47,24Z"/>
        </clipPath>
        <g clip-path="url(#_clip2)">
            <path d="M15,14L27,13.996L27,27.996L15,27.996" style="fill:rgb(255,73,53);fill-rule:nonzero;"/>
            <path id="SVGCleanerId_0" d="M27,14L25.926,14L15,22.754L15,28.004L27,28.004" style="fill-opacity:0.321569;fill-rule:nonzero;"/>
            <path d="M14.5,11C15.328,11 16,11.793 16,12.773L16,35.226C16,36.206 15.328,36.999 14.5,36.999C13.672,36.999 13,36.206 13,35.226L13,12.773C13,11.793 13.672,11 14.5,11" style="fill:rgb(240,240,240);fill-rule:nonzero;"/>
            <path d="M25,13L25.07,26.996L37,27L30.875,19L37,13" style="fill:rgb(255,73,53);fill-rule:nonzero;"/>
        </g>
    </g>
    <defs>
        <linearGradient id="_Linear1" x1="0" y1="0" x2="1" y2="0" gradientUnits="userSpaceOnUse" gradientTransform="matrix(2.81669e-15,-46,46,2.81669e-15,0.999999,47)"><stop offset="0" style="stop-color:rgb(0,90,160);stop-opacity:1"/><stop offset="1" style="stop-color:rgb(0,168,252);stop-opacity:1"/></linearGradient>
    </defs>
</svg>
